static/assets/img/icons/theme/media/movie-lane-1.svg

<svg height="24" viewBox="0 0 24 24" width="24" xmlns="http://www.w3.org/2000/svg"><g fill="none" fill-rule="evenodd"><path d="m0 0h24v24h-24z" opacity="0"/><g fill="#000"><path d="m12 21c-4.97056275 0-9-4.0294373-9-9 0-4.97056275 4.02943725-9 9-9 4.9705627 0 9 4.02943725 9 9 0 4.9705627-4.0294373 9-9 9zm-.2247449-7.7071068c.5522848 0 1-.4477152 1-1 0-.5522847-.4477152-1-1-1-.5522847 0-1 .4477153-1 1 0 .5522848.4477153 1 1 1zm-.5517122-4.19067068c1.0669322-.28588362 1.7000972-1.38255754 1.4142135-2.44948974-.2858836-1.06693221-1.3825575-1.70009719-2.4494897-1.41421356-1.06693222.28588362-1.7000972 1.38255753-1.41421358 2.44948974.28588363 1.06693221 1.38255758 1.70009718 2.44948978 1.41421356zm2.5881904 9.65925828c1.0669322-.2858836 1.7000972-1.3825576 1.4142136-2.4494898s-1.3825576-1.7000971-2.4494898-1.4142135-1.7000972 1.3825575-1.4142135 2.4494897c.2858836 1.0669322 1.3825575 1.7000972 2.4494897 1.4142136zm-6.12372434-3.5355339c1.06693221-.2858836 1.70009718-1.3825576 1.41421356-2.4494898s-1.38255754-1.7000972-2.44948974-1.4142135c-1.06693221.2858836-1.70009719 1.3825575-1.41421356 2.4494897.28588362 1.0669322 1.38255753 1.7000972 2.44948974 1.4142136zm9.65925824-2.5881905c1.0669322-.2858836 1.7000972-1.3825575 1.4142136-2.4494897-.2858836-1.06693222-1.3825576-1.7000972-2.4494898-1.41421358-1.0669322.28588363-1.7000971 1.38255758-1.4142135 2.44948978s1.3825575 1.7000972 2.4494897 1.4142135z" opacity=".3"/><path d="m17.6573343 19h3.3426657c.5522847 0 1 .4477153 1 1s-.4477153 1-1 1h-9c2.1432966 0 4.1116082-.7492001 5.6573343-2z"/></g></g></svg>

<svg width="24px" height="24px" viewBox="0 0 24 24" version="1.1" xmlns="http://www.w3.org/2000/svg" xmlns:xlink="http://www.w3.org/1999/xlink">
    <title>Icon For Movie-lane#1</title>
    <g stroke="none" stroke-width="1" fill="none" fill-rule="evenodd">
        <rect opacity="0" x="0" y="0" width="24" height="24"></rect>
        <path d="M12,21 C7.02943725,21 3,16.9705627 3,12 C3,7.02943725 7.02943725,3 12,3 C16.9705627,3 21,7.02943725 21,12 C21,16.9705627 16.9705627,21 12,21 Z M11.7752551,13.2928932 C12.3275399,13.2928932 12.7752551,12.845178 12.7752551,12.2928932 C12.7752551,11.7406085 12.3275399,11.2928932 11.7752551,11.2928932 C11.2229704,11.2928932 10.7752551,11.7406085 10.7752551,12.2928932 C10.7752551,12.845178 11.2229704,13.2928932 11.7752551,13.2928932 Z M11.2235429,9.10222252 C12.2904751,8.8163389 12.9236401,7.71966498 12.6377564,6.65273278 C12.3518728,5.58580057 11.2551989,4.95263559 10.1882667,5.23851922 C9.12133448,5.52440284 8.4881695,6.62107675 8.77405312,7.68800896 C9.05993675,8.75494117 10.1566107,9.38810614 11.2235429,9.10222252 Z M13.8117333,18.7614808 C14.8786655,18.4755972 15.5118305,17.3789232 15.2259469,16.311991 C14.9400633,15.2450588 13.8433893,14.6118939 12.7764571,14.8977775 C11.7095249,15.1836611 11.0763599,16.280335 11.3622436,17.3472672 C11.6481272,18.4141994 12.7448011,19.0473644 13.8117333,18.7614808 Z M7.68800896,15.2259469 C8.75494117,14.9400633 9.38810614,13.8433893 9.10222252,12.7764571 C8.8163389,11.7095249 7.71966498,11.0763599 6.65273278,11.3622436 C5.58580057,11.6481272 4.95263559,12.7448011 5.23851922,13.8117333 C5.52440284,14.8786655 6.62107675,15.5118305 7.68800896,15.2259469 Z M17.3472672,12.6377564 C18.4141994,12.3518728 19.0473644,11.2551989 18.7614808,10.1882667 C18.4755972,9.12133448 17.3789232,8.4881695 16.311991,8.77405312 C15.2450588,9.05993675 14.6118939,10.1566107 14.8977775,11.2235429 C15.1836611,12.2904751 16.280335,12.9236401 17.3472672,12.6377564 Z" fill="#000000" opacity="0.3"></path>
        <path d="M17.6573343,19 L21,19 C21.5522847,19 22,19.4477153 22,20 C22,20.5522847 21.5522847,21 21,21 L12,21 C14.1432966,21 16.1116082,20.2507999 17.6573343,19 Z" fill="#000000"></path>
    </g>
</svg>
